img/logo-gscholar.svg

<svg fill="#000000" xmlns="http://www.w3.org/2000/svg"  viewBox="0 0 24 24" width="96px" height="96px"><path d="M 11 4 L 3 9 L 8.4921875 9 C 8.4715892 9.0754986 8.4383718 9.1441171 8.421875 9.2226562 C 8.375875 9.4646562 8.3398437 9.7308125 8.3398438 10.007812 C 8.3398438 13.578812 11.990234 13.175781 11.990234 13.175781 L 11.990234 14.085938 C 11.990234 14.454937 12.47425 14.327172 12.53125 15.076172 C 12.28925 15.076172 7.4746094 14.937547 7.4746094 18.185547 C 7.4746094 21.445547 11.724609 21.285156 11.724609 21.285156 C 11.724609 21.285156 16.632812 21.504656 16.632812 17.472656 C 16.634813 15.063656 13.822266 14.2795 13.822266 13.3125 C 13.822266 12.3335 15.941406 12.045906 15.941406 9.7539062 C 15.941406 8.7519062 15.872828 8.03825 15.423828 7.53125 C 15.388828 7.49625 15.366031 7.4722188 15.332031 7.4492188 C 15.324304 7.4420199 15.31448 7.4367774 15.306641 7.4296875 L 15.429688 7.4296875 L 17.5 5.8769531 L 17.5 8 A 0.50005 0.50005 0 0 0 17.511719 8.1152344 A 1.0001 1.0001 0 0 0 17 9 L 17 10 A 1.0001 1.0001 0 1 0 19 10 L 19 9 A 1.0001 1.0001 0 0 0 18.488281 8.1152344 A 0.50005 0.50005 0 0 0 18.5 8 L 18.5 5.125 L 20 4 L 11 4 z M 11.691406 7.0527344 C 11.979219 7.0397031 12.268922 7.109625 12.544922 7.265625 C 12.751922 7.369625 12.946141 7.518125 13.119141 7.703125 C 13.476141 8.060125 13.7765 8.5784531 13.9375 9.1894531 C 14.3175 10.640453 13.823828 12.035781 12.798828 12.300781 C 11.784828 12.587781 10.654672 11.641172 10.263672 10.201172 C 10.090672 9.4991719 10.114547 8.8202969 10.310547 8.2792969 C 10.312395 8.2723193 10.316443 8.2666961 10.318359 8.2597656 C 10.321722 8.2581149 10.32682 8.253536 10.330078 8.2519531 C 10.386262 8.0380596 10.478099 7.8461668 10.589844 7.6875 C 10.795388 7.3872165 11.066477 7.1838352 11.404297 7.09375 C 11.499297 7.07075 11.595469 7.0570781 11.691406 7.0527344 z M 12.082031 15.685547 C 13.775031 15.558547 15.216313 16.490813 15.320312 17.757812 C 15.390313 19.013813 14.087812 20.131094 12.382812 20.246094 C 10.689813 20.361094 9.2274844 19.441547 9.1464844 18.185547 C 9.0654844 16.918547 10.377031 15.812547 12.082031 15.685547 z"/></svg>

<svg xmlns="http://www.w3.org/2000/svg" viewBox="3 4 17 17.29"><path d="M13.823,13.313c0-0.979,2.119-1.267,2.119-3.559c0-1.002-0.069-1.716-0.518-2.223c-0.035-0.035-0.058-0.058-0.092-0.081 c-0.161-0.15-0.346-0.276-0.576-0.392c0-0.334,1.878-0.115,1.878-0.76c-0.323,0-4.112,0-4.112,0s-3.018,0.08-3.905,2.303 c-0.092,0.196-0.15,0.403-0.196,0.622C8.375,9.465,8.34,9.73,8.34,10.007c0,3.571,3.651,3.168,3.651,3.168s0,0.541,0,0.91 c0,0.369,0.484,0.242,0.541,0.991c-0.242,0-5.057-0.138-5.057,3.11c0,3.26,4.25,3.099,4.25,3.099s4.907,0.219,4.907-3.813 C16.634,15.063,13.823,14.28,13.823,13.313z M10.264,10.202C10.091,9.5,10.114,8.82,10.31,8.279 c0.058-0.219,0.15-0.415,0.265-0.576c0.207-0.311,0.484-0.518,0.829-0.61c0.38-0.092,0.772-0.035,1.14,0.173 c0.207,0.104,0.403,0.253,0.576,0.438c0.357,0.357,0.657,0.875,0.818,1.486c0.38,1.451-0.115,2.845-1.14,3.11 C11.784,12.587,10.655,11.642,10.264,10.202z M12.383,20.247c-1.693,0.115-3.156-0.806-3.237-2.062 c-0.081-1.267,1.232-2.373,2.937-2.5c1.693-0.127,3.133,0.806,3.237,2.073C15.39,19.014,14.088,20.132,12.383,20.247z"/><path d="M20,4l-4.571,3.429h-2.286c-0.194-0.206-0.389-0.229-0.594-0.183c-0.366-0.206-0.754-0.263-1.131-0.171 C11.074,7.166,10.8,7.371,10.594,7.68c-0.114,0.16-0.206,0.354-0.263,0.571C9.977,8.423,9,9,9,9H3l8-5H20z"/><line x1="18" x2="18" y1="9" y2="10" fill="none" stroke="#000" stroke-linecap="round" stroke-miterlimit="10" stroke-width="2"/><line x1="18" x2="18" y1="5" y2="8" fill="none" stroke="#000" stroke-linecap="round" stroke-miterlimit="10"/></svg>
